X: 5017
T: Brian Boru's
R: reel
M: 4/4
K: Emajor
|:"E(I)" B2eB cege|BeeB AFFE|GBAc Bcef|fgfa ~g2ec|
B2eB cege|BeeB AFFE|GBAc Bcef|"B(V)" gafb ~g2ec:|
"C#m(vi)" zc'bg f3"G#m(iii)"c'|bgfg e3c'|"A(IV)" bgfe efge|ceBG "B(V)" GF (3FGA|
"E(I)" B2eB cege|BeeB AFFE|GBAc Bcef|"B(V)" fgfb ~g2ec|
zc'bg f3c'|bgfg e3[F]|[GB]2[Ac]2[Bd]2[ce]2|[df]2[eg]2[fa]2[gb]2|
B2eB cege|BeeB AFFE|GBAc Bcef|fgfb ~g2ec||

